packages/icons/svg/Fill/umbrella.svg

<svg fill="none" height="24" viewBox="0 0 24 24" width="24" xmlns="http://www.w3.org/2000/svg"><path clip-rule="evenodd" d="m12 2c-5.51398 0-9.99998 4.486-9.99998 10 0 .553.447 1 1 1h7.99998v6c0 1.654 1.346 3 3 3s3-1.346 3-3c0-.553-.447-1-1-1s-1 .447-1 1c0 .552-.448 1-1 1s-1-.448-1-1v-6h8c.553 0 1-.447 1-1 0-5.514-4.486-10-10-10" fill="#6b7280" fill-rule="evenodd"/></svg>

<svg width="24" height="24" viewBox="0 0 24 24" fill="none" xmlns="http://www.w3.org/2000/svg">
<g id="Icon/Fill/umbrella">
<path id="Mask" fill-rule="evenodd" clip-rule="evenodd" d="M12 2C6.486 2 2 6.486 2 12C2 12.553 2.447 13 3 13H11V19C11 20.654 12.346 22 14 22C15.654 22 17 20.654 17 19C17 18.447 16.553 18 16 18C15.447 18 15 18.447 15 19C15 19.552 14.552 20 14 20C13.448 20 13 19.552 13 19V13H21C21.553 13 22 12.553 22 12C22 6.486 17.514 2 12 2Z" fill="#000000"/>
</g>
</svg>
